webapp/src/main/webapp/src/assets/svgs/assessment-icons/Math_HS_Seeing-Structure-in-Expressions.svg

<?xml version="1.0" encoding="utf-8"?>
<!-- Generator: Adobe Illustrator 24.0.0, SVG Export Plug-In . SVG Version: 6.00 Build 0)  -->
<svg version="1.1" id="Layer_1" xmlns="http://www.w3.org/2000/svg" xmlns:xlink="http://www.w3.org/1999/xlink" x="0px" y="0px"
	 viewBox="0 0 100 100" style="enable-background:new 0 0 100 100;" xml:space="preserve">
<style type="text/css">
	.st0{fill:none;}
	.st1{fill:#FFFFFF;}
	.st2{fill:#FFFFFF;stroke:#FFFFFF;stroke-width:0.25;stroke-miterlimit:10;}
	.st3{fill:none;stroke:#000000;stroke-width:0.25;stroke-linecap:round;stroke-miterlimit:10;}
	.st4{fill:#D9D9D9;}
	.st5{fill:none;stroke:#000000;stroke-width:2;stroke-linejoin:round;stroke-miterlimit:10;}
	.st6{fill:none;stroke:#000000;stroke-width:0.4396;stroke-miterlimit:10;}
	.st7{fill:none;stroke:#000000;stroke-linecap:round;stroke-linejoin:round;}
	.st8{fill:none;stroke:#000000;stroke-linecap:round;stroke-linejoin:round;stroke-miterlimit:10;}
</style>
<path d="M99.98,50.28H68.35c-0.09-0.62-0.35-1.26-0.84-1.89c-0.29-0.23-0.59-0.39-0.89-0.53V34.74c0-0.83-0.67-1.5-1.5-1.5
	s-1.5,0.67-1.5,1.5v13.15c-0.9,0.47-1.55,1.35-1.72,2.39H50.43V-0.25h-1v50.53H29.97c-0.09-0.62-0.35-1.26-0.84-1.89
	c-0.29-0.23-0.59-0.39-0.89-0.53V34.74c0-0.83-0.67-1.5-1.5-1.5s-1.5,0.67-1.5,1.5v13.15c-0.9,0.47-1.55,1.35-1.72,2.39H-0.11v1
	h23.63c0.09,0.62,0.35,1.26,0.84,1.89c0.29,0.23,0.59,0.39,0.89,0.53v1.85c0,12.94,9.28,23.47,20.69,23.47
	c1.19,0,2.36-0.12,3.5-0.34v21.01h1V78.45c9.25-2.34,16.19-11.72,16.19-22.9v-1.88c0.9-0.47,1.55-1.35,1.72-2.39h31.64V50.28z
	 M49.43,75.61c-1.13,0.26-2.3,0.41-3.5,0.41c-9.75,0-17.69-9.18-17.69-20.47v-1.88c0.9-0.47,1.55-1.35,1.72-2.39h19.47V75.61z
	 M50.43,75.32V51.28H61.9c0.09,0.62,0.35,1.26,0.84,1.89c0.29,0.23,0.59,0.39,0.89,0.53v1.85C63.62,65.03,58.01,73.01,50.43,75.32z
	 M60.64,23.65l-1.67-2.33l-1.72,2.33h-2.4l2.93-3.83l-2.83-3.77h2.47l1.61,2.22l1.65-2.22h2.35l-2.83,3.72l2.94,3.89H60.64z
	 M65.24,16.09h6.73v1.72h-6.73V16.09z M65.24,19.6h6.73v1.73h-6.73V19.6z M81.95,21.79v1.87h-7.48v-1.48l3.82-3.6
	c0.4-0.39,0.68-0.72,0.82-1c0.14-0.28,0.21-0.55,0.21-0.83c0-0.4-0.13-0.7-0.4-0.91c-0.27-0.21-0.66-0.32-1.18-0.32
	c-0.43,0-0.82,0.08-1.17,0.25c-0.35,0.17-0.64,0.41-0.88,0.74l-1.67-1.07c0.39-0.58,0.92-1.03,1.6-1.35
	c0.68-0.32,1.46-0.49,2.33-0.49c0.74,0,1.38,0.12,1.93,0.36c0.55,0.24,0.98,0.58,1.29,1.02c0.31,0.44,0.46,0.95,0.46,1.55
	c0,0.54-0.11,1.04-0.34,1.51c-0.23,0.47-0.66,1.01-1.31,1.61l-2.28,2.15H81.95z M85.19,21.4c0.25,0.25,0.38,0.58,0.38,0.98
	c0,0.19-0.02,0.38-0.07,0.56c-0.05,0.19-0.15,0.47-0.31,0.85l-0.81,2.04h-1.4l0.62-2.25c-0.24-0.09-0.42-0.25-0.56-0.46
	s-0.2-0.46-0.2-0.74c0-0.4,0.13-0.73,0.39-0.98c0.26-0.25,0.59-0.37,0.98-0.37S84.93,21.15,85.19,21.4z M87.96,18.79h4v1.77h-4
	V18.79z M99.14,18.75c0.46,0.5,0.69,1.13,0.69,1.87c0,0.57-0.15,1.1-0.45,1.59c-0.3,0.49-0.76,0.87-1.38,1.17
	c-0.62,0.29-1.37,0.44-2.27,0.44c-0.7,0-1.38-0.09-2.06-0.27c-0.67-0.18-1.25-0.45-1.72-0.78l0.89-1.75
	c0.38,0.28,0.81,0.5,1.31,0.66c0.5,0.16,1,0.23,1.52,0.23c0.58,0,1.03-0.11,1.36-0.33c0.33-0.22,0.49-0.53,0.49-0.94
	c0-0.81-0.62-1.22-1.85-1.22h-1.05V17.9l2.04-2.3h-4.21v-1.84h6.93v1.48l-2.23,2.54C98.01,17.93,98.68,18.25,99.14,18.75z"/>
</svg>

<svg id="Layer_1" data-name="Layer 1" xmlns="http://www.w3.org/2000/svg" viewBox="0 0 100 100"><defs><style>.cls-1{fill:#231f20;}</style></defs><title> </title><path class="cls-1" d="M100,50.28H68.35a4,4,0,0,0-.84-1.89,3.89,3.89,0,0,0-.89-.52V34.74a1.5,1.5,0,1,0-3,0V47.89a3.26,3.26,0,0,0-1.71,2.39H50.43V-.25h-1V50.28H30a4,4,0,0,0-.84-1.89,3.89,3.89,0,0,0-.89-.52V34.74a1.5,1.5,0,0,0-3,0V47.89a3.26,3.26,0,0,0-1.71,2.39H-.11v1H23.52a4.07,4.07,0,0,0,.83,1.89,4.36,4.36,0,0,0,.89.52v1.86C25.24,68.49,34.52,79,45.93,79a17.53,17.53,0,0,0,3.5-.35v21h1V78.45c9.25-2.34,16.19-11.71,16.19-22.9V53.67a3.25,3.25,0,0,0,1.72-2.39H100ZM49.43,75.61a15,15,0,0,1-3.5.41c-9.75,0-17.69-9.19-17.69-20.47V53.67A3.25,3.25,0,0,0,30,51.28H49.43Zm1-.29v-24H61.9a4.07,4.07,0,0,0,.83,1.89,4.36,4.36,0,0,0,.89.52v1.86C63.62,65,58,73,50.43,75.32ZM60.64,23.65,59,21.32l-1.73,2.33h-2.4l2.93-3.83-2.83-3.77h2.47L59,18.27l1.65-2.22H63L60.2,19.77l2.94,3.88Zm4.6-7.56H72v1.73H65.24Zm0,3.51H72v1.72H65.24ZM82,21.79v1.86H74.47V22.17l3.82-3.6a4.13,4.13,0,0,0,.82-1,1.86,1.86,0,0,0,.21-.83,1.08,1.08,0,0,0-.4-.91,1.89,1.89,0,0,0-1.18-.32,2.61,2.61,0,0,0-1.17.25,2.23,2.23,0,0,0-.88.74L74,15.43a3.86,3.86,0,0,1,1.6-1.35A5.25,5.25,0,0,1,78,13.59a4.78,4.78,0,0,1,1.93.36,3,3,0,0,1,1.29,1,2.68,2.68,0,0,1,.46,1.55A3.55,3.55,0,0,1,81.29,18,5.9,5.9,0,0,1,80,19.64L77.7,21.79Zm3.24-.39a1.33,1.33,0,0,1,.38,1,2.22,2.22,0,0,1-.07.57,6.92,6.92,0,0,1-.31.84l-.81,2H83l.63-2.25a1.11,1.11,0,0,1-.56-.46,1.42,1.42,0,0,1,.18-1.72,1.37,1.37,0,0,1,1-.38A1.35,1.35,0,0,1,85.19,21.4ZM88,18.79h4v1.77H88Zm11.18,0a2.69,2.69,0,0,1,.69,1.88,3,3,0,0,1-.45,1.59A3.14,3.14,0,0,1,98,23.38a5.16,5.16,0,0,1-2.27.44,7.85,7.85,0,0,1-2-.27A5.36,5.36,0,0,1,92,22.76L92.85,21a4.48,4.48,0,0,0,1.31.66,5.18,5.18,0,0,0,1.52.23A2.41,2.41,0,0,0,97,21.57a1.08,1.08,0,0,0,.5-.94c0-.81-.62-1.22-1.85-1.22H94.63V17.9l2-2.3H92.45V13.76h6.93v1.48l-2.23,2.55A3.35,3.35,0,0,1,99.14,18.75Z"/></svg>
